X: 20442
T: Carron Side
B: James Oswald "The Caledonian Pocket Companion" v.2 p.44 #1
Z: 2019 John Chambers <jc:trillian.mit.edu>
M: C
L: 1/16
K: G
|: "_Plentive"\
g4(ed)B2 d4 (BA)G2 | g4 (ed)B2 d8 |\
=f4 Te3d B4 (dB)G2 | g4 (ed)B2 {B4}A8 |
g4 (ed)B2 d4 (BA)G2 | g4 bag2 e6 g2 |\
{e}d4 (BA)G2 E4 (DE)G2 | {GA}[B4B,4] T[A3A,3][GG,] [G8G,8] :|
% - - - - - - - - - -
% It's not clear whether this was intended as a separate tune,
% or a finale for the preceding Scotts Gavot on the same page.
% The formatting was a bit odd, with this tune's title on the
% left edge, below its first staff.
